src/lib/packages/icons/src/assets/line/stopwatch-edit.svg

<svg width="24" height="24" viewBox="0 0 24 24" fill="none" xmlns="http://www.w3.org/2000/svg">
<path d="M11.7451 20.882C11.7931 21.294 11.4989 21.666 11.0879 21.715C10.8879 21.739 10.7 21.75 10.5 21.75C5.951 21.75 2.25 18.049 2.25 13.5C2.25 8.951 5.951 5.25 10.5 5.25C12.349 5.25 14.0831 5.883 15.4861 6.953L16.47 5.96899C16.763 5.67599 17.238 5.67599 17.531 5.96899C17.824 6.26199 17.824 6.73703 17.531 7.03003L16.5879 7.97302C17.3099 8.76902 17.8991 9.69595 18.2681 10.752C18.4051 11.143 18.1991 11.571 17.8081 11.708C17.4161 11.842 16.9891 11.638 16.8521 11.248C15.9101 8.55805 13.357 6.75 10.5 6.75C6.778 6.75 3.75 9.778 3.75 13.5C3.75 17.222 6.778 20.25 10.5 20.25C10.64 20.25 10.7721 20.242 10.9121 20.226C11.3261 20.168 11.6961 20.471 11.7451 20.882ZM9.75 10V13.5C9.75 13.914 10.086 14.25 10.5 14.25C10.914 14.25 11.25 13.914 11.25 13.5V10C11.25 9.586 10.914 9.25 10.5 9.25C10.086 9.25 9.75 9.586 9.75 10ZM8 3.75H13C13.414 3.75 13.75 3.414 13.75 3C13.75 2.586 13.414 2.25 13 2.25H8C7.586 2.25 7.25 2.586 7.25 3C7.25 3.414 7.586 3.75 8 3.75ZM22.75 15.881C22.749 16.319 22.5781 16.731 22.2681 17.04L16.752 22.531C16.611 22.671 16.4209 22.749 16.2229 22.749H14C13.586 22.749 13.25 22.413 13.25 21.999V19.777C13.25 19.579 13.328 19.388 13.469 19.248L18.96 13.7321C19.269 13.4211 19.6799 13.25 20.1179 13.25C20.1189 13.25 20.1201 13.25 20.1211 13.25C20.5591 13.25 20.9701 13.42 21.2791 13.73L22.269 14.72C22.58 15.03 22.75 15.443 22.75 15.881ZM20.0229 14.791L19.3879 15.429L20.572 16.6121L21.209 15.978C21.243 15.945 21.25 15.906 21.25 15.88C21.25 15.854 21.243 15.815 21.209 15.781L20.219 14.791C20.185 14.757 20.1471 14.75 20.1211 14.75H20.1201C20.0951 14.75 20.0569 14.757 20.0229 14.791ZM19.509 17.67L18.3301 16.491L14.749 20.087V21.25H15.9121L19.509 17.67Z" fill="currentColor"/>
</svg>

<svg xmlns="http://www.w3.org/2000/svg" width="24" height="24" fill="none"><path fill="currentColor" d="M11.745 20.882a.751.751 0 0 1-.657.833 4.83 4.83 0 0 1-.588.035c-4.549 0-8.25-3.701-8.25-8.25 0-4.549 3.701-8.25 8.25-8.25 1.849 0 3.583.633 4.986 1.703l.984-.984a.75.75 0 1 1 1.061 1.061l-.943.943a8.132 8.132 0 0 1 1.68 2.779.75.75 0 0 1-1.416.496A6.735 6.735 0 0 0 10.5 6.75a6.758 6.758 0 0 0-6.75 6.75 6.758 6.758 0 0 0 6.75 6.75c.14 0 .272-.008.412-.024a.742.742 0 0 1 .833.656ZM9.75 10v3.5a.75.75 0 0 0 1.5 0V10a.75.75 0 0 0-1.5 0ZM8 3.75h5a.75.75 0 0 0 0-1.5H8a.75.75 0 0 0 0 1.5Zm14.75 12.131c-.001.438-.172.85-.482 1.159l-5.516 5.491a.75.75 0 0 1-.53.218H14a.75.75 0 0 1-.75-.75v-2.222c0-.198.078-.389.219-.529l5.491-5.516a1.62 1.62 0 0 1 1.158-.482h.003c.438 0 .85.17 1.158.48l.99.99c.311.31.481.723.481 1.161Zm-2.727-1.09-.635.638 1.184 1.183.637-.634a.134.134 0 0 0 .041-.098.138.138 0 0 0-.041-.099l-.99-.99a.136.136 0 0 0-.196 0Zm-.514 2.879-1.179-1.179-3.581 3.596v1.163h1.163l3.597-3.58Z"/></svg>
